X:1
T:Le son du cor s'afflige vers les bois
T:Le son du cor s'afflige vers les bois
T:Musique de Claude Debussy
T:Poésie de Paul Verlaine
T:Trois Mélodies
T:N° 2
T:à Robert Godet
C:Musique de Claude Debussy
Z:Poésie de Paul Verlaine
%%score 1 { ( 2 4 ) | ( 3 5 6 ) }
L:1/8
Q:1/4=45
M:9/8
K:Ab
V:1 treble nm="Chant"
V:2 treble nm="Piano"
V:4 treble 
V:3 treble 
V:5 treble 
V:6 treble 
V:1
"^Lent et dolent" z6 | z6 | z6 | z6 | z2 z!p! =E E E | =E E E E E E | F6 | %7
w: ||||Le son du|cor s'af- fli- ge vers les|bois,|
 (3(F F F (3B !tenuto!B B (3c B c | G2 F2) z!pp! D | %9
w: D'u- ne dou- leur on veut croire or- phe-|li- ne Qui|
 !tenuto!D !tenuto!D (3!tenuto!D !tenuto!D !tenuto!D (3!tenuto!D !tenuto!D !tenuto!D | %10
w: vient mou- rir au bas de la col-|
 !tenuto!D2- D (D E!<(! F | =A!<)! c!>(! c B B!>)! c | G4) z2 | %13
w: li- ne Par- mi la|bise er- rant en courts a-|bois.|
[Q:1/4=48]"^Un peu animé" (3E E E (3_G G G (3A G A | B4 B2 | B"^cresc." _c (3A _G A (3c A c | %16
w: L'â- me du loup pleu- re dans cet- te|voix, Qui|monte a- vec le so- leil, qui dé-|
 e4- e2 |!mf! (3=e =d e (3c B c (3A _G A | _G2 _F!<(! F G A!<)! | %19
w: cli- ne|D'une a- go- nie on veut croi- re câ-|li- ne, Et qui ra-|
!f! d2 B"^dim." A (3_F"^molto" _G =G | G4 z2 |[Q:1/4=45]"^1er Mouvement." z6 | z2 z!p! D E F | %23
w: vit et qui navre à la|fois.||Pour fai- re|
 (F2 G G (3B G B | c2 B2) (d2 | c c (3B B B (3A A A | _G2 =E2)!pp! !tenuto!=D !tenuto!D | %27
w: mieux cet- te plainte as- sou-|pi- e, La|nei- ge tombe à longs traits de char-|pi- e A tra-|
 (3!tenuto!=D !tenuto!D !tenuto!D!<(! (3!tenuto!D !tenuto!D !tenuto!D (3:2:2!tenuto!D!<)! !tenuto!D2 || %28
w: vers le cou- chant san- gui- no- lent,|
[M:6/8] z6 | z6 | z6 | (G2 F F (3G G G | (3=A A A =B2 A2) | %33
w: |||Et l'air a l'air d'être un|sou- pir d'au- tom- ne|
!<(! (3(=A c =e!<)! (3c!>(! A ^F!>)! (3A!>(! c e!>)! |!>(! =e4!>)! c2) | %35
w: Tant il fait doux par ce soir mo- no-|to- ne,|
!pp![Q:1/4=40]"^Lent." (c2 B2 G2 | c B F D E F | A4) z2 | z6 |] %39
w: Où se dor-|lote un pa- y- sa- ge|lent.||
V:2
 z6 x3 |!pp! CED GCE DGC x16/3 |!<(! ED-B-!<)!!>(! B3!>)! A3 x17/3 | %3
 F2!<(! !tenuto!F- F2 !tenuto!F-!<)! F!>(!FG!>)! x6 | !arpeggio!!>![=A,^C=E]6- [A,CE]3 x5 | %5
 [=A,^C=E]6- E3 x | =F6- F3 x3 | (=C!<(!ED-!<)!!>(! G6)!>)! x25/3 |!<(! (CED!<)!!>(! A6)!>)! x6 | %9
!>(! !tenuto!.[g=be'g']3!>)! !tenuto!.[f=ad'f']3!>(! !tenuto!.[G=Beg]3!>)! x3 | %10
 !tenuto!.[F=Adf]6 z4/3 z2/3 x3 | [DF]6- [DF]3 x6 | %12
 ([G,C=E] [G,CE]2)"_dim." ([CEG] [CEG]2) ([CEG] [CEG]2) x2 | %13
 ([C_EB] [CEB]2 [C_GB] [CGB]2 [CEB] [CEB]2 x3 | [C_GB] [CGB]2 [CEB] [CEB]2 [CGB] [CGB]2) x3 | %15
 ([_CEB] [CEB]2 [C_GB] [CGB]2 [CEB] [CEB]2 x6 | [_C_GB] [CGB]2 [CEB] [CEB]2 [CGB] [CGB]2) x6 | %17
 ([=C=E_GB] [CEGB]2 [CEGB] [CEGB]2 [CEGB] [CEGB]2 x6 | [_F_GB] [FGB]2 [FGB] [FGB]2 [GB] [GB]2) x3 | %19
!f! ([D_FB] [DFB]2 [DFB] [DFB]2 [DFB] [DFB]2 x3 | %20
"_dim." [=EGB] [EGB]2 [GB=e] [GBe]2 [Gcg] [Gcg]2) x3 |!pp! (c'_e'd' g'c'e' d'g'c' x6 | %22
 e')d'g'- g'2 z2/3 z4/3 z2/3 x10/3 | c'e'd' g'c'e' d'g'c' x6 | e'd'g'- g'2 z2/3 z4/3 z2/3 x10/3 | %25
!pp! ([gc'=e'g']3"_en mourant""_dim." [fb=d'f']3 [eac'_e']3 x3 | %26
 [d_gbd']3 [=B=e^g=b]3 [=A=df=a]3) x3 | =DDD DDD !tenuto!DDD x6 ||[M:6/8] =D!>(!DD DDD!>)! | %29
[M:9/8]"^très soutenu" _DDD [DF][DF][DF] DDD x6 | [DF][DF][DF] DDD [DF][DF][DF] x6 | %31
 DDD [DF][DF][DF] DDD x6 | [DF][DF][DF] DDD [DF][DF][DF] x6 | ([C=E]3 [CE]3 [CE]3 x5 | %34
 [C=E]3 [CE]3 [CE]3) x5 |!pp! (C_ED G2) z2/3 z4/3 z2/3 x5 | (CED G2) z2/3 z4/3 z2/3 x5 | %37
 (CED A3) !tenuto![d_fab]3 x19/3 |!ppp! !arpeggio![c=fac']6 z4/3 z2/3 x2 |] %39
V:3
!pp! !tenuto![B,F]2 !tenuto![B,F]- [B,F]2 !tenuto![B,F]- [B,F]2 !tenuto![B,F]- | %1
 x16/3 [B,F]3- [B,F] [B,F]2- [B,F]3 | x17/3 [A,F]6- [A,F]3 |[K:bass] x6 [G,B,]6- [G,B,]3 | %4
 x3 =E,6- E,3 x2 | x4 z6 | x6 z6 | x16/3 [F,B,]6- [F,B,]3 x3 | x3 F,3- F,6 x3 | %9
[K:treble] x3 !arpeggio!!tenuto!.[DG=Be]3 !arpeggio![DF=Ad]3[K:bass] !arpeggio![D,G,=B,E]3 | %10
 x2 ([D,F,=A,D]6 C,3) | x6 B,,6- B,,3 | x3 !arpeggio!!>![C,,G,,=E,]6 z4/3 z2/3 | %13
[K:treble] x3 (!tenuto!_G3 !tenuto!E3 !tenuto!G3 | x3 !tenuto!E3 !tenuto!_G3 !tenuto!E3) | %15
 x3 !tenuto!_G3 !tenuto!E3 !tenuto!G3 x3 | x3 !tenuto!E3 !tenuto!_G3 !tenuto!E3 x3 | %17
[K:bass] x3 =E,3 _G,3 A,3 x3 |[K:treble] x3 C3 =D3 =E3 | x3 A6 !tenuto!=G3 | x3 (=D6 [C=E]3) | %21
 x6 (!arpeggio![B,FGd]3 !arpeggio![DGBe]3 !arpeggio![B,FGd]3 | %22
 x10/3 [DGBe]3-) [DGBe]2 z2/3 z4/3 z2/3 | %23
 x6 (!arpeggio![B,FGd]3 !arpeggio![DGBe]3 !arpeggio![B,FGd]3 | %24
 x10/3 [DGBe]3-) [DGBe]2 z2/3 z4/3 z2/3 | %25
 x3 (!arpeggio![CGc=e]3 !arpeggio![=DFB=d]3 !arpeggio![A,_EAc]3 | %26
 x3 !arpeggio![B,_D_GB]3 !arpeggio![=E,=B,=E^G]3 !arpeggio![F,=A,=DF]3) | %27
[K:bass] x3 [F,B,] [F,B,] [F,B,] [F,B,] [F,B,] [F,B,] [=E,B,] [E,B,] [E,B,] x3 || %28
[M:6/8] [=E,B,] [E,B,] [E,B,] [E,B,] [E,B,] [E,B,] | %29
[M:9/8] x3 [F,=A,] [F,A,] [F,A,] A, A, A, [F,A,] [F,A,] [F,A,] x3 | %30
 x3 =A, A, A, [F,A,] [F,A,] [F,A,] A, A, A, x3 | %31
 x3 [F,=A,] [F,A,] [F,A,] A, A, A, [F,A,] [F,A,] [F,A,] x3 | %32
 x3 =A, A, A, [F,A,] [F,A,] [F,A,] A, A, A, x3 | x3 =F,3 ^F,3 =F,3 x2 | x3 ^F,3 =F,3 ^F,3 x2 | %35
 x5/3 [=F,B,]6[K:treble] z4/3 z2/3 x3 |[K:bass] x5/3 [F,B,]6[K:treble] z4/3 z2/3 x3 | %37
[K:bass] x3 F,6[K:treble] !arpeggio![D_FAB]3 x10/3 | x2 [=F,C=FA]6 z4/3 z2/3 |] %39
V:4
 x9 | x3 C2 D z2/3 C2 D z2/3 x x3 | x11/3 D2 D6 x3 | x3 D6- D3 x3 | x14 | x7 [A,C]3 | %6
 x3 [=A,^C]6- [A,C]3 | x13/3 D D6 x6 | x15 | x12 | x11 | x3 =A,3 _A,3 G,3 x3 | x11 | x12 | x12 | %15
 x15 | x15 | x15 | x12 | x12 | x12 | x3 f3 g3 f3 x3 | x5/3 g3 g2 x13/3 | x3 (f3 g3 f3 x3 | %24
 x5/3 g3-) g2 x13/3 | x12 | x12 | x15 ||[M:6/8] x6 |[M:9/8] x15 | x15 | x15 | x15 | x14 | x14 | %35
 x38/3 | x38/3 | x46/3 | x10 |] %39
V:5
 x9 | x43/3 | x44/3 |[K:bass] x15 | x6 !arpeggio![=A,,,=E,,=A,,]6 z4/3 z2/3 | x10 | x12 | %7
 x25/3 B,,6- B,,3 | x6 [D,,A,,]6- [D,,A,,]3 |[K:treble] x9[K:bass] x3 | x11 | x15 | x11 | %13
[K:treble] x12 | x12 | x6 A,6- A,3- | x6 A,6- A,3 |[K:bass] x6 A,,6- A,,3 |[K:treble] x12 | x12 | %20
 x12 | x15 | x11 | x15 | x11 | x12 | x12 |[K:bass] x6 (B,,3 _A,,6) ||[M:6/8] (G,,3 C,,3) | %29
[M:9/8] x6 ([G,,,G,,]3 [F,,,F,,]3 [G,,,G,,]3 | x6 [=A,,,=A,,]3 [=B,,,=B,,]3 [A,,,A,,]3) | %31
 x6 ([G,,,G,,]3 [F,,,F,,]3 [G,,,G,,]3 | x6 [=A,,,=A,,]3 [=B,,,=B,,]3 [A,,,A,,]3) | %33
 x6 (2:3:2=A,,8/9=D,,8/9(2:3:2A,,8/9=A,8/9(2:3:2A,,8/9D,,8/9 | %34
 x6 (2:3:2A,,8/9D,,8/9(2:3:2A,,8/9A,8/9(2:3:2A,,8/9D,,8/9 | x11/3 [B,,,F,,]6[K:treble] x3 | %36
[K:bass] x11/3 [B,,,F,,]6[K:treble] x3 |[K:bass] x6 [D,,A,,]6[K:treble] x10/3 | x10 |] %39
V:6
 x9 | x43/3 | x44/3 |[K:bass] x15 | x14 | x10 | x12 | x52/3 | x15 |[K:treble] x9[K:bass] x3 | x11 | %11
 x15 | x11 |[K:treble] x12 | x12 | x15 | x15 |[K:bass] x15 |[K:treble] x12 | x12 | x12 | x15 | %22
 x11 | x15 | x11 | x12 | x12 |[K:bass] x15 ||[M:6/8] x6 |[M:9/8] x15 | x15 | x15 | x15 | x14 | %34
 x14 | x5[K:treble] x2 (d g2) z2/3 x2 |[K:bass] x5[K:treble] x2 (d g2) z2/3 x2 | %37
[K:bass] x19/3[K:treble] x3 (d a3) x2 | x10 |] %39

